source/img/star.svg

<svg width="18" height="17" viewBox="0 0 18 17" fill="none" xmlns="http://www.w3.org/2000/svg">
<path d="M17.2168 5.79584L12.2598 5.32991C11.9473 5.30167 11.6774 5.10401 11.5496 4.80751L9.77417 0.529461C9.49009 -0.176487 8.48164 -0.176487 8.19757 0.529461L6.43632 4.80751C6.3227 5.10401 6.03862 5.30167 5.72615 5.32991L0.769095 5.79584C0.030509 5.86643 -0.267766 6.78417 0.286173 7.27833L4.02172 10.5398C4.26318 10.7516 4.3626 11.0622 4.29158 11.3728L3.1695 15.9474C2.99906 16.6674 3.78025 17.2604 4.43362 16.8792L8.56686 14.4649C8.83673 14.3096 9.16341 14.3096 9.43328 14.4649L13.5665 16.8792C14.2199 17.2604 15.0011 16.6816 14.8306 15.9474L13.7228 11.3728C13.6517 11.0622 13.7512 10.7516 13.9926 10.5398L17.7282 7.27833C18.2679 6.78417 17.9554 5.86643 17.2168 5.79584Z" fill="#FC9B09"/>
</svg>

<svg width="18" height="17" fill="none" xmlns="http://www.w3.org/2000/svg"><path d="M17.217 5.796L12.26 5.33a.857.857 0 01-.71-.522L9.774.529c-.284-.705-1.292-.705-1.576 0L6.436 4.808a.838.838 0 01-.71.522L.77 5.796c-.738.07-1.037.988-.483 1.482l3.736 3.262c.241.212.34.522.27.833L3.17 15.947c-.17.72.61 1.313 1.264.932l4.133-2.414a.864.864 0 01.866 0l4.133 2.414a.853.853 0 001.265-.932l-1.108-4.574a.841.841 0 01.27-.833l3.735-3.262c.54-.494.227-1.412-.511-1.482z" fill="#FC9B09"/></svg>
